src/svgs/c++.svg

<?xml version="1.0" encoding="UTF-8"?>
<svg width="32px" height="32px" viewBox="0 0 32 32" version="1.1" xmlns="http://www.w3.org/2000/svg" xmlns:xlink="http://www.w3.org/1999/xlink">
    <!-- Generator: Sketch 49.1 (51147) - http://www.bohemiancoding.com/sketch -->
    <title>c++</title>
    <desc>Created with Sketch.</desc>
    <defs></defs>
    <g id="c++" stroke="none" stroke-width="1" fill="none" fill-rule="evenodd">
        <path d="M16.1226209,2.50442472 C15.7227042,2.47775217 15.3360857,2.57171573 14.9628416,2.78501607 C13.7630915,3.47821072 12.0434554,4.46476906 9.80391431,5.74451581 C7.5910267,7.02425113 6.00450568,7.93056131 5.04469419,8.46378738 C4.72477608,8.67707819 4.45757434,8.96971029 4.2442702,9.34297159 C4.05756239,9.68956605 3.97836399,10.0497407 4.00503653,10.423002 L4.00503653,16.0623893 L4.00503653,21.700788 C4.00503653,22.020727 4.11172671,22.3671958 4.3250118,22.7404513 C4.53831594,23.0870515 4.76436575,23.3405378 5.00432339,23.5005121 C10.7631733,26.7798405 14.0164616,28.6325859 14.762988,29.0591675 C15.1095786,29.3257805 15.5089047,29.458886 15.9621475,29.458886 C16.4153902,29.458886 16.8421128,29.3394883 17.2420295,29.0995345 C18.201841,28.5396435 19.2148261,27.9533886 20.2812706,27.3401754 C21.3743877,26.7003086 22.5743283,26.0063824 23.8807304,25.2598655 C25.2138051,24.5133487 26.2404885,23.9270804 26.9603233,23.5005121 C27.2269344,23.340534 27.4667015,23.0870515 27.6800247,22.7404513 C27.8933289,22.3671958 28,22.020727 28,21.700788 L28,10.2635059 C28,9.97023171 27.8933098,9.62376298 27.6800247,9.22384248 C27.4667396,8.90389769 27.2269725,8.65040755 26.9603233,8.46378738 C22.2679179,5.77099022 19.0283279,3.90454085 17.2420295,2.86476507 C16.9220923,2.65145902 16.5491911,2.53107059 16.1226209,2.50442472 Z M16.4425962,8.00400988 C16.9889451,8.03079673 17.5215768,8.11729198 18.0414818,8.26392429 C19.0546194,8.53053733 19.9883108,8.99641713 20.8414702,9.66294114 C21.7213022,10.3028193 22.4142358,11.0760068 22.9208046,11.982498 C21.9609931,12.5690444 20.814912,13.2355569 19.4818373,13.9820738 C19.1885727,13.5288368 18.8146998,13.1295202 18.3614571,12.7829201 C17.9082144,12.4363142 17.4149247,12.209247 16.8817025,12.1026082 C16.5084393,12.0092924 16.1355381,11.9765043 15.7622939,12.0031768 C15.3890307,12.0298303 15.0161485,12.1164589 14.6428853,12.263095 C13.8963589,12.5563692 13.2826999,13.0095205 12.8027846,13.622728 C12.34958,14.2359412 12.083369,14.9553016 12.0033513,15.7818056 C11.9500062,16.581639 12.135952,17.3147053 12.5625603,17.9812445 C12.7492681,18.3278409 12.9899878,18.6351677 13.2832334,18.9017807 C13.6031896,19.1684033 13.9359296,19.3944817 14.2825393,19.5811018 C14.6291299,19.7410609 15.0030218,19.8477454 15.4029385,19.9010771 C16.2027719,20.0343827 16.9749992,19.9277115 17.7215066,19.5811018 C18.468033,19.2078463 19.0415498,18.6744297 19.4414856,17.9812445 C20.5079301,18.5944521 21.6677094,19.2609665 22.9208046,19.9808223 C22.4142358,20.8873078 21.7340288,21.660501 20.8808694,22.3003791 C20.02771,22.9402458 19.0949711,23.4071049 18.0818336,23.7003771 C17.0687151,23.9670054 16.0293242,24.0335496 14.9628416,23.9002345 C13.896397,23.7669289 12.9098177,23.446887 12.0033513,22.940322 C10.7769097,22.2204663 9.80311413,21.2339079 9.08324122,19.9808223 C8.57669151,19.100996 8.24389437,18.1545685 8.08393531,17.1414385 C7.95057259,16.1283105 7.99077193,15.1290275 8.20396176,14.1425606 C8.4439194,13.1294307 8.85692469,12.2094261 9.44347298,11.382922 C10.0566748,10.5297588 10.8034488,9.82311929 11.6832808,9.2632283 C12.6164198,8.6766762 13.6431031,8.29007863 14.7628927,8.10345274 C15.3361048,8.01013694 15.896152,7.97723446 16.4425009,8.00402131 L16.4425962,8.00400988 Z M20.6012459,13.9820738 L21.9214987,13.9820738 L21.9214987,15.3023285 L23.2811316,15.3023285 L23.2811316,16.6619672 L21.9214987,16.6619672 L21.9214987,17.9812369 L20.6012459,17.9812369 L20.6012459,16.6619672 L19.241613,16.6619672 L19.241613,15.3023285 L20.6012459,15.3023285 L20.6012459,13.9820738 Z M25.1202416,13.9820738 L26.4404945,13.9820738 L26.4404945,15.3023285 L27.7597756,15.3023285 L27.7597756,16.6619672 L26.4404945,16.6619672 L26.4404945,17.9812369 L25.1202416,17.9812369 L25.1202416,16.6619672 L23.8009795,16.6619672 L23.8009795,15.3023285 L25.1202416,15.3023285 L25.1202416,13.9820738 Z" id="path4020" fill="#444444" fill-rule="nonzero"></path>
    </g>
</svg>

<?xml version="1.0" encoding="UTF-8" standalone="no"?>
<svg
   width="32px"
   height="32px"
   viewBox="0 0 32 32"
   version="1.1"
   id="svg10"
   sodipodi:docname="c++.svg"
   xmlns:inkscape="http://www.inkscape.org/namespaces/inkscape"
   xmlns:sodipodi="http://sodipodi.sourceforge.net/DTD/sodipodi-0.dtd"
   xmlns="http://www.w3.org/2000/svg"
   xmlns:svg="http://www.w3.org/2000/svg">
  <sodipodi:namedview
     id="namedview12"
     pagecolor="#ffffff"
     bordercolor="#666666"
     borderopacity="1.0"
     inkscape:pageshadow="2"
     inkscape:pageopacity="0.0"
     inkscape:pagecheckerboard="0" />
  <!-- Generator: Sketch 49.1 (51147) - http://www.bohemiancoding.com/sketch -->
  <title
     id="title2">c++</title>
  <desc
     id="desc4">Created with Sketch.</desc>
  <defs
     id="defs6" />
  <g
     id="c++"
     stroke="none"
     stroke-width="1"
     fill="none"
     fill-rule="evenodd">
    <path
       d="M 16.122621,2.5044247 C 14.903861,2.4885117 13.989695,3.4768253 12.932993,3.9531824 10.230574,5.5198586 7.4921497,7.0371348 4.8146584,8.6386521 3.8160263,9.3930346 4.0208957,10.697489 4.0050365,11.794577 c 0.013293,3.383444 -0.026572,6.769056 0.020003,10.151144 0.1847878,1.331101 1.5110734,1.852429 2.5328949,2.439487 2.9248497,1.649871 5.8314287,3.348486 8.7646397,4.973798 1.432081,0.45658 2.59196,-0.770201 3.781485,-1.340308 2.666324,-1.581431 5.396408,-3.057837 8.051195,-4.655696 C 28.20644,22.563719 27.98174,21.192078 28,20.040461 c -0.01323,-3.335345 0.02653,-6.67299 -0.02,-10.006889 C 27.696089,8.3889035 25.862801,7.9669989 24.669557,7.148549 22.011827,5.6542379 19.403798,4.057424 16.722312,2.6145973 16.528282,2.5520233 16.325911,2.5170616 16.122621,2.5044247 Z m 0.319975,5.4995852 c 2.634358,0.1400024 5.161341,1.694764 6.478209,3.9784881 -1.150532,0.560849 -2.480389,1.761705 -3.552718,1.832137 -1.122964,-1.73946 -3.629094,-2.380347 -5.386117,-1.22975 -1.995328,1.084756 -2.641955,3.99068 -1.186656,5.769638 1.373673,1.95422 4.548894,2.159983 6.123045,0.339133 0.73697,-1.517084 2.200379,0.633904 3.307422,0.887874 1.490829,0.588766 -0.685643,2.062259 -1.344912,2.71885 -3.095808,2.485101 -8.052131,2.157365 -10.707094,-0.827943 C 7.525486,18.723286 7.2514981,14.042527 9.6796839,11.069855 11.266751,9.0290999 13.869456,7.8820356 16.442596,8.0040099 Z m 4.15865,5.9780641 c 0.440084,0 0.880169,0 1.320253,0 0,0.440085 0,0.88017 0,1.320255 0.453211,0 0.906422,0 1.359633,0 0,0.453213 0,0.906425 0,1.359638 -0.453211,0 -0.906422,0 -1.359633,0 0,0.439757 0,0.879513 0,1.31927 -0.440084,0 -0.880169,0 -1.320253,0 0,-0.439757 0,-0.879513 0,-1.31927 -0.453211,0 -0.906422,0 -1.359633,0 0,-0.453213 0,-0.906425 0,-1.359638 0.453211,0 0.906422,0 1.359633,0 0,-0.440085 0,-0.88017 0,-1.320255 z m 4.518996,0 c 0.440084,0 0.880168,0 1.320252,0 0,0.440085 0,0.88017 0,1.320255 0.439761,0 0.879521,0 1.319282,0 0,0.453213 0,0.906425 0,1.359638 -0.439761,0 -0.879521,0 -1.319282,0 0,0.439757 0,0.879513 0,1.31927 -0.440084,0 -0.880168,0 -1.320252,0 0,-0.439757 0,-0.879513 0,-1.31927 -0.439754,0 -0.879509,0 -1.319263,0 0,-0.453213 0,-0.906425 0,-1.359638 0.439754,0 0.879509,0 1.319263,0 0,-0.440085 0,-0.88017 0,-1.320255 z"
       id="path4020"
       fill="#444444"
       fill-rule="nonzero" />
  </g>
</svg>
